X: 537
T: The Humours of Cork
R: jig
B: "Twenty Four Country Dances for the Year 1805", Tho. Preston, ed. p.229
F: http://folkopedia.efdss.org/images/archive/0/02/20121211105513%21Preston_24_1805.PDF
Z: 2011 John Chambers <jc:trillian.mit.edu>
M: 6/8
L: 1/8
K: G
|:\
dBG GFG | GFG ABc | BGB dcB | ece efg | dBG GFG |
GFG ABc | Bdg gec | BcA G3 :: gfg efg | dec BAG |
BGB dcB | ece efg | dBG GFG | AFA ABc | Bdg gec | BcA G3 :|
%%begintext align
%% Lead down the middle up again and allemande
%% swing corners, foot it outsides.
%%endtext

%%sep 1 1 500
%%sep 1 1 500
